X:42
T: Hopp Marjennchen, S. 10
N: L0003
O: Luxemburg
S: Die Luxemburger Volkslieder lterer Zeit, Luxemburg 1904 posth.]
R: Kinderlied, Reigenlied, Tanzlied]
M: 3/4
L: 1/4
K: G
 | BzG | GFG | BzG | GFG
A2A | ddd | B3 | G2z
BzG | GFG | BzG | GFG
A2A | FEF | G3 | G2z

